rospo-icon-theme-classic-common/32x32/places/folder-brown-apple.svg

<svg height="32" width="32" xmlns="http://www.w3.org/2000/svg"><rect height="16" opacity=".2" rx="1.25" width="25" x="3" y="12"/><path d="m3 21.75c0 .692.5575 1.25 1.25 1.25h22.5c.692 0 1.25-.558 1.25-1.25v-13.5c0-.6925-.558-1.25-1.25-1.25h-12.75v-.75c0-.6925-.557-1.25-1.25-1.25h-8.5c-.6925 0-1.25.5575-1.25 1.25" fill="#957552"/><rect height="16" opacity=".2" rx="1.25" width="25" x="3" y="10"/><rect fill="#e4e4e4" height="10" rx="1.25" width="21" x="5" y="9"/><rect fill="#ae8e6c" height="16" rx="1.25" width="25" x="3" y="11"/><path d="m4.25 5c-.6925 0-1.25.5575-1.25 1.25v1c0-.6925.5575-1.25 1.25-1.25h8.5c.693 0 1.25.5575 1.25 1.25v.75h12.75c.692 0 1.25.5575 1.25 1.25v-1c0-.6925-.558-1.25-1.25-1.25h-12.75v-.75c0-.6925-.557-1.25-1.25-1.25z" fill="#fff" opacity=".1"/><path d="m17.989 14c-.496.018-1.097.29-1.453.656-.319.325-.6.842-.525 1.34.553.038 1.12-.247 1.465-.613.344-.367.577-.875.513-1.383zm-.328 2.006c-.657.052-1.258.484-1.598.484-.387 0-.984-.469-1.619-.457-.834.014-1.604.519-2.033 1.321-.866 1.613-.223 4.002.621 5.31.413.64.968 1.336 1.553 1.336s.857-.434 1.609-.434.954.42 1.621.42 1.093-.652 1.502-1.295c.474-.742.671-1.463.683-1.5-.015-.007-1.306-.536-1.319-2.13-.013-1.335 1.016-1.977 1.062-2.008-.577-.906-1.476-1.031-1.797-1.045-.095-.011-.191-.01-.285-.002z" fill="#3d3226"/></svg>

<svg xmlns="http://www.w3.org/2000/svg" width="32" height="32" version="1">
 <rect style="opacity:0.2" width="25" height="16" x="3" y="12" rx="1.25" ry="1.25"/>
 <path style="fill:#957552" d="M 3,21.75 C 3,22.442 3.5575,23 4.25,23 H 26.75 C 27.442,23 28,22.442 28,21.75 V 8.25 C 28,7.5575 27.442,7 26.75,7 H 14 V 6.25 C 14,5.5575 13.443,5 12.75,5 H 4.25 C 3.5575,5 3,5.5575 3,6.25"/>
 <rect style="opacity:0.2" width="25" height="16" x="3" y="10" rx="1.25" ry="1.25"/>
 <rect style="fill:#dcdcdc" width="21" height="10" x="5" y="9" rx="1.25" ry="1.25"/>
 <rect style="fill:#ae8e6c" width="25" height="16" x="3" y="11" rx="1.25" ry="1.25"/>
 <path style="opacity:0.1;fill:#ffffff" d="M 4.25 5 C 3.5575 5 3 5.5575 3 6.25 L 3 7.25 C 3 6.5575 3.5575 6 4.25 6 L 12.75 6 C 13.443 6 14 6.5575 14 7.25 L 14 8 L 26.75 8 C 27.442 8 28 8.5575 28 9.25 L 28 8.25 C 28 7.5575 27.442 7 26.75 7 L 14 7 L 14 6.25 C 14 5.5575 13.443 5 12.75 5 L 4.25 5 z"/>
 <path style="fill:#3d3226" d="M 17.989,14 C 17.493,14.018 16.892,14.29 16.536,14.656 16.217,14.981 15.936,15.498 16.011,15.996 16.564,16.034 17.131,15.749 17.476,15.383 17.82,15.016 18.053,14.508 17.989,14 Z M 17.661,16.006 C 17.004,16.058 16.403,16.49 16.063,16.49 15.676,16.49 15.079,16.021 14.444,16.033 13.61,16.047 12.84,16.552 12.411,17.354 11.545,18.967 12.188,21.356 13.032,22.664 13.445,23.304 14,24 14.585,24 15.17,24 15.442,23.566 16.194,23.566 16.946,23.566 17.148,23.986 17.815,23.986 18.482,23.986 18.908,23.334 19.317,22.691 19.791,21.949 19.988,21.228 20,21.191 19.985,21.184 18.694,20.655 18.681,19.061 18.668,17.726 19.697,17.084 19.743,17.053 19.166,16.147 18.267,16.022 17.946,16.008 17.851,15.997 17.755,15.998 17.661,16.006 Z"/>
</svg>
